X:88
T:Mery Motion. JBs.088
T:Merry Motion,aka. JBs.088
S:Jas.Blackshaw MS, 1837, N.Shropshire
A:North Shropshire
Z:T. Weatherall 2006
M:2/4
L:1/16
Q:1/4=80
R:Country Dance
K:C
cdec cded|c2G2G4|efgf efgf|e2c2c4|!
gefd e2c2|gefd e2c2|AcBd cedf|e2c2c4:|!
|:GABc d2B2|cdef g2G2|ABcA BcdG|cdec defd|!
g4g4|cdec ABcd|B2G2 GABc|B2G2G4:|!
|:GEGE c2c2|GEGE D2D2|GEGE A3B|cBAG A3B|!
cedc BGAB|cedc BGAB|cABd cedf|e2c2c4:|

